SVG/hand-peace-o.svg

<?xml version="1.0" encoding="utf-8"?>
<!-- Generated by IcoMoon.io -->
<!DOCTYPE svg PUBLIC "-//W3C//DTD SVG 1.1//EN" "http://www.w3.org/Graphics/SVG/1.1/DTD/svg11.dtd">
<svg version="1.1" xmlns="http://www.w3.org/2000/svg" xmlns:xlink="http://www.w3.org/1999/xlink" width="12" height="14" viewBox="0 0 12 14">
<path fill="#444444" d="M10.063 5.055q0.469 0 0.836 0.18 1.102 0.492 1.102 1.766v1.383q0 0.734-0.18 1.453l-0.664 2.648q-0.164 0.672-0.707 1.094t-1.23 0.422h-5.219q-0.828 0-1.414-0.586t-0.586-1.414v-3.133l-1.867-4.906q-0.133-0.352-0.133-0.711 0-0.828 0.586-1.414t1.414-0.586q0.625 0 1.137 0.355t0.73 0.934l0.133 0.344v-0.883q0-0.828 0.586-1.414t1.414-0.586 1.414 0.586 0.586 1.414v2.039q0.211-0.039 0.375-0.039 0.539 0 0.996 0.285t0.691 0.77zM8.375 5q-0.258 0-0.473 0.141t-0.324 0.375l-0.578 1.273-0.555 1.211h0.43q0.391 0 0.703 0.246t0.391 0.629l1.203-2.641q0.078-0.156 0.078-0.359 0-0.359-0.258-0.617t-0.617-0.258zM10.102 6.055q-0.172 0-0.316 0.062t-0.227 0.125-0.184 0.23-0.133 0.238-0.133 0.289l-1.031 2.266q-0.078 0.156-0.078 0.359 0 0.359 0.258 0.617t0.617 0.258q0.258 0 0.473-0.141t0.324-0.375l1.25-2.75q0.070-0.141 0.070-0.297 0-0.391-0.25-0.637t-0.641-0.246zM1 3.25q0 0.172 0.062 0.359l1.937 5.078v0.539l0.797-0.867q0.336-0.359 0.828-0.359h1.547l0.828-1.82v-4.18q0-0.414-0.293-0.707t-0.707-0.293-0.707 0.293-0.293 0.707v5h-0.5l-1.563-4.109q-0.109-0.289-0.367-0.465t-0.57-0.176q-0.414 0-0.707 0.293t-0.293 0.707zM9.219 13q0.344 0 0.613-0.211t0.355-0.547l0.664-2.648q0.148-0.57 0.148-1.211v-0.711l-1.102 2.422q-0.133 0.297-0.414 0.477t-0.609 0.18q-0.414 0-0.73-0.27t-0.379-0.676q-0.344 0.445-0.891 0.445h-1.625v-0.25h1.625q0.359 0 0.633-0.258t0.273-0.617-0.242-0.617-0.602-0.258h-2.313q-0.383 0-0.641 0.281l-0.984 1.062v2.406q0 0.414 0.293 0.707t0.707 0.293h5.219z"></path>
</svg>

<svg xmlns="http://www.w3.org/2000/svg" viewBox="0 0 12 14"><path d="M10.063 5.055q.47 0 .836.18Q12 5.727 12 7v1.384q0 .734-.18 1.453l-.663 2.648q-.164.672-.707 1.094T9.22 14H4q-.827 0-1.413-.585T2 12V8.87L.135 3.962Q0 3.61 0 3.252q0-.83.587-1.415T2 1.25q.626 0 1.138.356t.73.934L4 2.884V2q0-.827.587-1.413T6 0t1.415.587T8 2v2.04Q8.213 4 8.377 4q.54 0 .996.286t.69.77zM8.375 5q-.258 0-.473.14t-.324.376L7 6.79 6.445 8h.43q.39 0 .703.246t.39.63l1.204-2.642q.078-.156.078-.36 0-.358-.258-.616T8.375 5zm1.727 1.055q-.172 0-.316.062t-.227.125-.185.23-.133.238T9.11 7L8.077 9.264Q8 9.42 8 9.625q0 .358.258.616t.617.26q.258 0 .473-.142t.324-.375l1.25-2.75q.07-.14.07-.297 0-.39-.25-.637t-.64-.247zM1 3.25q0 .172.062.36L3 8.686v.54l.796-.868Q4.132 8 4.624 8H6.17L7 6.18V2q0-.414-.294-.707T6 1t-.708.293T5 2v5h-.5L2.935 2.89q-.11-.288-.367-.464T2 2.25q-.415 0-.708.293T1 3.25zM9.22 13q.343 0 .612-.21t.355-.548l.664-2.648q.15-.57.15-1.21V7.67l-1.103 2.422q-.133.297-.414.477t-.61.18q-.413 0-.73-.27t-.378-.675q-.344.445-.89.445H5.248V10h1.624q.36 0 .633-.258t.273-.617-.242-.617-.602-.258H4.623q-.383 0-.64.28l-.985 1.063V12q0 .413.293.706T4 13h5.22z" /></svg>
